src/icons/video.svg

<svg xmlns="http://www.w3.org/2000/svg" width="24" height="24" fill="none"><path fill="currentColor" d="M17 12 9 8v8z"/><path fill="currentColor" fill-rule="evenodd" d="M1 2h2v2h2V2h2v2h2V2h2v2h2V2h2v2h2V2h2v2h2V2h2v20h-2v-2h-2v2h-2v-2h-2v2h-2v-2h-2v2H9v-2H7v2H5v-2H3v2H1zm2 4h18v12H3z" clip-rule="evenodd"/></svg>

<svg width="24" height="24" viewBox="0 0 24 24" fill="none" xmlns="http://www.w3.org/2000/svg">
<path d="M17 12L9 8V16L17 12Z" fill="black"/>
<path fill-rule="evenodd" clip-rule="evenodd" d="M1 2H3V4H5V2H7V4H9V2H11V4H13V2H15V4H17V2H19V4H21V2H23V22H21V20H19V22H17V20H15V22H13V20H11V22H9V20H7V22H5V20H3V22H1V2ZM3 6H21V18H3V6Z" fill="black"/>
</svg>
